sabine/images/temperature.svg

<?xml version="1.0" encoding="UTF-8" standalone="no"?>
<svg
   xmlns:dc="http://purl.org/dc/elements/1.1/"
   xmlns:cc="http://creativecommons.org/ns#"
   xmlns:rdf="http://www.w3.org/1999/02/22-rdf-syntax-ns#"
   xmlns:svg="http://www.w3.org/2000/svg"
   xmlns="http://www.w3.org/2000/svg"
   id="svg3336"
   version="1.1"
   viewBox="0 0 80 100"
   height="100pt"
   width="80pt">
  <metadata
     id="metadata3345">
    <rdf:RDF>
      <cc:Work
         rdf:about="">
        <dc:format>image/svg+xml</dc:format>
        <dc:type
           rdf:resource="http://purl.org/dc/dcmitype/StillImage" />
        <dc:title></dc:title>
      </cc:Work>
    </rdf:RDF>
  </metadata>
  <defs
     id="defs3343" />
  <g
     transform="translate(-10,0)"
     id="#000000ff">
    <path
       style="opacity:1;fill:#000000"
       id="path3339"
       d="m 49.14,0 1.5,0 c 4,0.42 8.7,1.74 10.44,5.79 1.44,3.87 0.81,8.11 0.92,12.15 2.48,0.06 5.02,-0.13 7.43,0.55 0.24,1.04 0.44,2.1 0.59,3.17 -2.67,0.22 -5.34,0.37 -8.02,0.41 0,1.29 0,2.58 0,3.87 2.48,0.07 5.03,-0.15 7.45,0.56 0.23,1.05 0.42,2.1 0.56,3.16 -2.67,0.22 -5.34,0.37 -8.01,0.41 0,1.28 0,2.57 0,3.85 2.52,0.05 5.03,0.2 7.54,0.38 0.15,0.76 0.43,2.28 0.58,3.04 -2.67,0.6 -5.4,0.75 -8.12,0.74 0,1.28 0,2.57 0,3.85 2.62,0.05 5.25,0.19 7.87,0.37 -0.08,1.07 -0.2,2.12 -0.35,3.18 -2.44,0.73 -5.02,0.52 -7.52,0.58 0,1.29 0,2.57 0,3.86 2.65,0.05 5.3,0.2 7.95,0.44 -0.12,1.05 -0.28,2.09 -0.48,3.13 -2.62,0.73 -5.38,0.51 -8.06,0.69 2.51,3 6.01,5.03 8.21,8.3 5.84,7.82 5.59,19.31 0.04,27.21 -4.11,6.16 -11.33,9.73 -18.61,10.31 l -1.83,0 C 43.92,99.61 38.69,97.78 34.61,94.31 26.83,88.07 24.01,76.64 27.65,67.41 29.6,62.36 33.58,58.46 37.93,55.42 38.09,40.92 37.96,26.42 37.99,11.93 38.07,9.42 38.12,6.7 39.63,4.57 41.67,1.4 45.67,0.54 49.14,0 M 42.41,7.23 C 42,10.81 41.91,14.41 42,18 47.33,18 52.66,18 58,18 57.55,13.89 59.46,8.28 55.54,5.44 51.43,3.13 45.65,3.61 42.41,7.23 M 42,22 c -0.04,11.38 0.07,22.76 -0.04,34.14 0.22,1.64 -1.65,2.25 -2.63,3.16 -6.26,3.87 -10.08,11.51 -9.14,18.85 0.34,4.8 2.86,9.22 6.27,12.52 5.49,5.25 14.14,6.73 21.12,3.79 C 64.61,91.73 69.68,84.59 69.9,77.05 70.32,71.69 68.09,66.31 64.5,62.39 62.67,60.31 59.94,59.24 58.14,57.13 57.79,45.43 58.11,33.71 58,22 52.67,22 47.33,22 42,22 Z" />
  </g>
</svg>

<?xml version="1.0" encoding="UTF-8" ?>
<!DOCTYPE svg PUBLIC "-//W3C//DTD SVG 1.1//EN" "http://www.w3.org/Graphics/SVG/1.1/DTD/svg11.dtd">
<svg width="100pt" height="100pt" viewBox="0 0 100 100" version="1.1" xmlns="http://www.w3.org/2000/svg">
<g id="#000000ff">
<path fill="#000000" opacity="1.00" d=" M 49.14 0.00 L 50.64 0.00 C 54.64 0.42 59.34 1.74 61.08 5.79 C 62.52 9.66 61.89 13.90 62.00 17.94 C 64.48 18.00 67.02 17.81 69.43 18.49 C 69.67 19.53 69.87 20.59 70.02 21.66 C 67.35 21.88 64.68 22.03 62.00 22.07 C 62.00 23.36 62.00 24.65 62.00 25.94 C 64.48 26.01 67.03 25.79 69.45 26.50 C 69.68 27.55 69.87 28.60 70.01 29.66 C 67.34 29.88 64.67 30.03 62.00 30.07 C 62.00 31.35 62.00 32.64 62.00 33.92 C 64.52 33.97 67.03 34.12 69.54 34.30 C 69.69 35.06 69.97 36.58 70.12 37.34 C 67.45 37.94 64.72 38.09 62.00 38.08 C 62.00 39.36 62.00 40.65 62.00 41.93 C 64.62 41.98 67.25 42.12 69.87 42.30 C 69.79 43.37 69.67 44.42 69.52 45.48 C 67.08 46.21 64.50 46.00 62.00 46.06 C 62.00 47.35 62.00 48.63 62.00 49.92 C 64.65 49.97 67.30 50.12 69.95 50.36 C 69.83 51.41 69.67 52.45 69.47 53.49 C 66.85 54.22 64.09 54.00 61.41 54.18 C 63.92 57.18 67.42 59.21 69.62 62.48 C 75.46 70.30 75.21 81.79 69.66 89.69 C 65.55 95.85 58.33 99.42 51.05 100.00 L 49.22 100.00 C 43.92 99.61 38.69 97.78 34.61 94.31 C 26.83 88.07 24.01 76.64 27.65 67.41 C 29.60 62.36 33.58 58.46 37.93 55.42 C 38.09 40.92 37.96 26.42 37.99 11.93 C 38.07 9.42 38.12 6.70 39.63 4.57 C 41.67 1.40 45.67 0.54 49.14 0.00 M 42.41 7.23 C 42.00 10.81 41.91 14.41 42.00 18.00 C 47.33 18.00 52.66 18.00 58.00 18.00 C 57.55 13.89 59.46 8.28 55.54 5.44 C 51.43 3.13 45.65 3.61 42.41 7.23 M 42.00 22.00 C 41.96 33.38 42.07 44.76 41.96 56.14 C 42.18 57.78 40.31 58.39 39.33 59.30 C 33.07 63.17 29.25 70.81 30.19 78.15 C 30.53 82.95 33.05 87.37 36.46 90.67 C 41.95 95.92 50.60 97.40 57.58 94.46 C 64.61 91.73 69.68 84.59 69.90 77.05 C 70.32 71.69 68.09 66.31 64.50 62.39 C 62.67 60.31 59.94 59.24 58.14 57.13 C 57.79 45.43 58.11 33.71 58.00 22.00 C 52.67 22.00 47.33 22.00 42.00 22.00 Z" />
</g>
</svg>
